Numix-Circle/48x48/apps/balsamiq.svg

<svg xmlns="http://www.w3.org/2000/svg" viewBox="0 0 48 48"><defs><clipPath id="clipPath-492625954"><g transform="translate(0,-1004.3622)"><path d="m -24 13 c 0 1.105 -0.672 2 -1.5 2 -0.828 0 -1.5 -0.895 -1.5 -2 0 -1.105 0.672 -2 1.5 -2 0.828 0 1.5 0.895 1.5 2 z" transform="matrix(15.333333,0,0,11.5,414.99999,878.8622)" fill="#1890d0"/></g></clipPath><linearGradient id="linearGradient4184" x1="1" x2="47" gradientUnits="userSpaceOnUse"><stop stop-color="#b86a64" stop-opacity="1"/><stop offset="1" stop-color="#be7772" stop-opacity="1"/></linearGradient></defs><g><path d="m 36.31 5 c 5.859 4.062 9.688 10.831 9.688 18.5 c 0 12.426 -10.07 22.5 -22.5 22.5 c -7.669 0 -14.438 -3.828 -18.5 -9.688 c 1.037 1.822 2.306 3.499 3.781 4.969 c 4.085 3.712 9.514 5.969 15.469 5.969 c 12.703 0 23 -10.298 23 -23 c 0 -5.954 -2.256 -11.384 -5.969 -15.469 c -1.469 -1.475 -3.147 -2.744 -4.969 -3.781 z m 4.969 3.781 c 3.854 4.113 6.219 9.637 6.219 15.719 c 0 12.703 -10.297 23 -23 23 c -6.081 0 -11.606 -2.364 -15.719 -6.219 c 4.16 4.144 9.883 6.719 16.219 6.719 c 12.703 0 23 -10.298 23 -23 c 0 -6.335 -2.575 -12.06 -6.719 -16.219 z" opacity="0.05"/><path d="m 41.28 8.781 c 3.712 4.085 5.969 9.514 5.969 15.469 c 0 12.703 -10.297 23 -23 23 c -5.954 0 -11.384 -2.256 -15.469 -5.969 c 4.113 3.854 9.637 6.219 15.719 6.219 c 12.703 0 23 -10.298 23 -23 c 0 -6.081 -2.364 -11.606 -6.219 -15.719 z" opacity="0.1"/><path d="m 31.25 2.375 c 8.615 3.154 14.75 11.417 14.75 21.13 c 0 12.426 -10.07 22.5 -22.5 22.5 c -9.708 0 -17.971 -6.135 -21.12 -14.75 a 23 23 0 0 0 44.875 -7 a 23 23 0 0 0 -16 -21.875 z" opacity="0.2"/></g><g transform="matrix(0,-1,1,0,0,48)" fill="url(#linearGradient4184)" fill-opacity="1"><path d="M 24,1 C 36.703,1 47,11.297 47,24 47,36.703 36.703,47 24,47 11.297,47 1,36.703 1,24 1,11.297 11.297,1 24,1 Z"/></g><g><g clip-path="url(#clipPath-492625954)"><g transform="translate(1,1)"><g opacity="0.1"><!-- color: #c8c8c8 --><g><path d="m 16 13 c 0 0 -1 0 -1 1 l 0 22 c 0 0 0 1 1 1 l 18 0 c 0 0 0.996 0 0.996 -1 l 0 -3 l 1.441 0 c 0 0 0.564 -0.328 0.564 -2 c 0 -1.609 -0.625 -1.996 -0.625 -1.996 l -1.381 0 l 0 -8 l -8 -8 c -3.711 -0.004 -8.742 -0.004 -10.996 -0.004 z" transform="translate(-1,-1)"/><path d="m 34 20 l -8 -8 c -0.004 4 0 6 0 7 c 0 1 0 1 1 1 c 1 0 4.098 0.008 7 0 m 0 0" fill="#000" stroke="none" fill-rule="nonzero" fill-opacity="1"/><path d="m 18 28.984 l -2 1.016 l 2 1.02 m 0 -2.035" fill="#000" stroke="none" fill-rule="nonzero" fill-opacity="1"/></g></g></g></g></g><g><path d="m 15,12 c 0,0 -1,0 -1,1 l 0,22 c 0,0 0,1 1,1 l 18,0 c 0,0 0.996,0 0.996,-1 l 0,-14.996 -8,-8 C 22.285,12 17.254,12 15,12 m 0,0.004" fill="#f9f9f9" fill-rule="nonzero" stroke="none" fill-opacity="1"/><path d="m 19 21 0 1 10 0 0 -1 m -10 0" fill="#aaa" fill-rule="nonzero" stroke="none" fill-opacity="1"/><path d="m 19 23 0 1 10 0 0 -1 m -10 0" fill="#aaa" fill-rule="nonzero" stroke="none" fill-opacity="1"/><path d="m 19 25 0 1 10 0 0 -1 m -10 0" fill="#aaa" fill-rule="nonzero" stroke="none" fill-opacity="1"/><path d="m 34 20 -8 -8 c -0.004 4 0 6 0 7 0 1 0 1 1 1 1 0 4.098 0.008 7 0 m 0 0" fill="#dedede" fill-rule="nonzero" stroke="none" fill-opacity="1"/><path d="m 19.965 28 13.773 0 0 4 -13.773 0 m 0 -4" fill="#aaa" fill-rule="nonzero" stroke="none" fill-opacity="1"/><path d="m 33,28 0,4 2.438,0 c 0,0 0.563,-0.328 0.563,-2 0,-1.609 -0.625,-1.996 -0.625,-1.996 l -2.371,0 M 33.001,28" fill="#333" fill-rule="nonzero" stroke="none" fill-opacity="1"/><path d="m 20 28 -2 0.998 0 -0.014 l -1.555 0.789 -0.445 0.223 l 0.004 0.002 l -0.004 0.002 l 2 1.02 0 -0.023 2 1 0 0.004 3 0 0 -4 -3 0 z" fill="#333" fill-rule="nonzero" stroke="none" fill-opacity="1"/></g><g><path d="m 40.03 7.531 c 3.712 4.084 5.969 9.514 5.969 15.469 0 12.703 -10.297 23 -23 23 c -5.954 0 -11.384 -2.256 -15.469 -5.969 4.178 4.291 10.01 6.969 16.469 6.969 c 12.703 0 23 -10.298 23 -23 0 -6.462 -2.677 -12.291 -6.969 -16.469 z" opacity="0.1"/></g></svg>

<?xml version="1.0" encoding="UTF-8" standalone="no"?>
<svg
   xmlns:dc="http://purl.org/dc/elements/1.1/"
   xmlns:cc="http://creativecommons.org/ns#"
   xmlns:rdf="http://www.w3.org/1999/02/22-rdf-syntax-ns#"
   xmlns:svg="http://www.w3.org/2000/svg"
   xmlns="http://www.w3.org/2000/svg"
   xmlns:xlink="http://www.w3.org/1999/xlink"
   xmlns:sodipodi="http://sodipodi.sourceforge.net/DTD/sodipodi-0.dtd"
   xmlns:inkscape="http://www.inkscape.org/namespaces/inkscape"
   viewBox="0 0 48 48"
   id="svg2"
   version="1.1"
   inkscape:version="0.91 r13725"
   sodipodi:docname="balsamiq.svg">
  <metadata
     id="metadata93">
    <rdf:RDF>
      <cc:Work
         rdf:about="">
        <dc:format>image/svg+xml</dc:format>
        <dc:type
           rdf:resource="http://purl.org/dc/dcmitype/StillImage" />
        <dc:title></dc:title>
      </cc:Work>
    </rdf:RDF>
  </metadata>
  <sodipodi:namedview
     pagecolor="#ffffff"
     bordercolor="#666666"
     borderopacity="1"
     objecttolerance="10"
     gridtolerance="10"
     guidetolerance="10"
     inkscape:pageopacity="0"
     inkscape:pageshadow="2"
     inkscape:window-width="1280"
     inkscape:window-height="998"
     id="namedview91"
     showgrid="true"
     inkscape:zoom="4"
     inkscape:cx="36.379922"
     inkscape:cy="-3.919557"
     inkscape:window-x="0"
     inkscape:window-y="0"
     inkscape:window-maximized="1"
     inkscape:current-layer="svg2">
    <inkscape:grid
       type="xygrid"
       id="grid4264" />
  </sodipodi:namedview>
  <defs
     id="defs4">
    <linearGradient
       inkscape:collect="always"
       id="linearGradient4178">
      <stop
         style="stop-color:#b86a64;stop-opacity:1;"
         offset="0"
         id="stop4180" />
      <stop
         style="stop-color:#be7772;stop-opacity:1"
         offset="1"
         id="stop4182" />
    </linearGradient>
    <linearGradient
       id="linearGradient3764"
       x1="1"
       x2="47"
       gradientUnits="userSpaceOnUse"
       gradientTransform="matrix(0,-1,1,0,-1.5e-6,47.999998)">
      <stop
         stop-color="#bebebe"
         stop-opacity="1"
         id="stop7" />
      <stop
         offset="1"
         stop-color="#c8c8c8"
         stop-opacity="1"
         id="stop9" />
    </linearGradient>
    <clipPath
       id="clipPath-492625954">
      <g
         transform="translate(0,-1004.3622)"
         id="g12">
        <path
           d="m -24 13 c 0 1.105 -0.672 2 -1.5 2 -0.828 0 -1.5 -0.895 -1.5 -2 0 -1.105 0.672 -2 1.5 -2 0.828 0 1.5 0.895 1.5 2 z"
           transform="matrix(15.333333,0,0,11.5,414.99999,878.8622)"
           fill="#1890d0"
           id="path14" />
      </g>
    </clipPath>
    <clipPath
       id="clipPath-500719022">
      <g
         transform="translate(0,-1004.3622)"
         id="g17">
        <path
           d="m -24 13 c 0 1.105 -0.672 2 -1.5 2 -0.828 0 -1.5 -0.895 -1.5 -2 0 -1.105 0.672 -2 1.5 -2 0.828 0 1.5 0.895 1.5 2 z"
           transform="matrix(15.333333,0,0,11.5,414.99999,878.8622)"
           fill="#1890d0"
           id="path19" />
      </g>
    </clipPath>
    <linearGradient
       inkscape:collect="always"
       xlink:href="#linearGradient4178"
       id="linearGradient4184"
       x1="1"
       y1="24"
       x2="47"
       y2="24"
       gradientUnits="userSpaceOnUse" />
  </defs>
  <g
     id="g21">
    <path
       d="m 36.31 5 c 5.859 4.062 9.688 10.831 9.688 18.5 c 0 12.426 -10.07 22.5 -22.5 22.5 c -7.669 0 -14.438 -3.828 -18.5 -9.688 c 1.037 1.822 2.306 3.499 3.781 4.969 c 4.085 3.712 9.514 5.969 15.469 5.969 c 12.703 0 23 -10.298 23 -23 c 0 -5.954 -2.256 -11.384 -5.969 -15.469 c -1.469 -1.475 -3.147 -2.744 -4.969 -3.781 z m 4.969 3.781 c 3.854 4.113 6.219 9.637 6.219 15.719 c 0 12.703 -10.297 23 -23 23 c -6.081 0 -11.606 -2.364 -15.719 -6.219 c 4.16 4.144 9.883 6.719 16.219 6.719 c 12.703 0 23 -10.298 23 -23 c 0 -6.335 -2.575 -12.06 -6.719 -16.219 z"
       opacity="0.05"
       id="path23" />
    <path
       d="m 41.28 8.781 c 3.712 4.085 5.969 9.514 5.969 15.469 c 0 12.703 -10.297 23 -23 23 c -5.954 0 -11.384 -2.256 -15.469 -5.969 c 4.113 3.854 9.637 6.219 15.719 6.219 c 12.703 0 23 -10.298 23 -23 c 0 -6.081 -2.364 -11.606 -6.219 -15.719 z"
       opacity="0.1"
       id="path25" />
    <path
       d="m 31.25 2.375 c 8.615 3.154 14.75 11.417 14.75 21.13 c 0 12.426 -10.07 22.5 -22.5 22.5 c -9.708 0 -17.971 -6.135 -21.12 -14.75 a 23 23 0 0 0 44.875 -7 a 23 23 0 0 0 -16 -21.875 z"
       opacity="0.2"
       id="path27" />
  </g>
  <g
     id="g29"
     style="fill:url(#linearGradient4184);fill-opacity:1"
     transform="matrix(0,-1,1,0,0,48)">
    <path
       d="M 24,1 C 36.703,1 47,11.297 47,24 47,36.703 36.703,47 24,47 11.297,47 1,36.703 1,24 1,11.297 11.297,1 24,1 Z"
       id="path31"
       style="fill:url(#linearGradient4184);fill-opacity:1"
       inkscape:connector-curvature="0" />
  </g>
  <g
     id="g33" />
  <g
     id="g35">
    <g
       clip-path="url(#clipPath-492625954)"
       id="g37">
      <g
         transform="translate(1,1)"
         id="g39">
        <g
           opacity="0.1"
           id="g41">
          <!-- color: #c8c8c8 -->
          <g
             id="g43">
            <path
               d="m 15 12 c 0 0 -1 0 -1 1 l 0 22 c 0 0 0 1 1 1 l 18 0 c 0 0 0.996 0 0.996 -1 l 0 -14.996 l -8 -8 c -3.711 -0.004 -8.742 -0.004 -10.996 -0.004 m 0 0.004"
               fill="#000"
               stroke="none"
               fill-rule="nonzero"
               fill-opacity="1"
               id="path45" />
            <path
               d="m 19 21 l 0 1 l 10 0 l 0 -1 m -10 0"
               fill="#000"
               stroke="none"
               fill-rule="nonzero"
               fill-opacity="1"
               id="path47" />
            <path
               d="m 19 23 l 0 1 l 10 0 l 0 -1 m -10 0"
               fill="#000"
               stroke="none"
               fill-rule="nonzero"
               fill-opacity="1"
               id="path49" />
            <path
               d="m 19 25 l 0 1 l 10 0 l 0 -1 m -10 0"
               fill="#000"
               stroke="none"
               fill-rule="nonzero"
               fill-opacity="1"
               id="path51" />
            <path
               d="m 34 20 l -8 -8 c -0.004 4 0 6 0 7 c 0 1 0 1 1 1 c 1 0 4.098 0.008 7 0 m 0 0"
               fill="#000"
               stroke="none"
               fill-rule="nonzero"
               fill-opacity="1"
               id="path53" />
            <path
               d="m 19.965 28 l 13.773 0 l 0 4 l -13.773 0 m 0 -4"
               fill="#000"
               stroke="none"
               fill-rule="nonzero"
               fill-opacity="1"
               id="path55" />
            <path
               d="m 33 28 l 0 4 l 2.438 0 c 0 0 0.563 -0.328 0.563 -2 c 0 -1.609 -0.625 -1.996 -0.625 -1.996 l -2.371 0 m -0.004 -0.004"
               fill="#000"
               stroke="none"
               fill-rule="nonzero"
               fill-opacity="1"
               id="path57" />
            <path
               d="m 20 28 l -4 1.996 l 4 2 l 0 -4 m 0 0.004"
               fill="#000"
               stroke="none"
               fill-rule="nonzero"
               fill-opacity="1"
               id="path59" />
            <path
               d="m 18 28.984 l -2 1.016 l 2 1.02 m 0 -2.035"
               fill="#000"
               stroke="none"
               fill-rule="nonzero"
               fill-opacity="1"
               id="path61" />
          </g>
        </g>
      </g>
    </g>
  </g>
  <path
     style="fill:#f9f9f9;fill-opacity:1;fill-rule:nonzero;stroke:none"
     inkscape:connector-curvature="0"
     id="path69"
     d="m 15,12 c 0,0 -1,0 -1,1 l 0,22 c 0,0 0,1 1,1 l 18,0 c 0,0 0.996,0 0.996,-1 l 0,-14.996 -8,-8 C 22.285,12 17.254,12 15,12 m 0,0.004" />
  <path
     style="fill:#aaaaaa;fill-opacity:1;fill-rule:nonzero;stroke:none"
     inkscape:connector-curvature="0"
     id="path71"
     d="m 19,21 0,1 10,0 0,-1 m -10,0" />
  <path
     style="fill:#aaaaaa;fill-opacity:1;fill-rule:nonzero;stroke:none"
     inkscape:connector-curvature="0"
     id="path73"
     d="m 19,23 0,1 10,0 0,-1 m -10,0" />
  <path
     style="fill:#aaaaaa;fill-opacity:1;fill-rule:nonzero;stroke:none"
     inkscape:connector-curvature="0"
     id="path75"
     d="m 19,25 0,1 10,0 0,-1 m -10,0" />
  <path
     style="fill:#dedede;fill-opacity:1;fill-rule:nonzero;stroke:none"
     inkscape:connector-curvature="0"
     id="path77"
     d="m 34,20 -8,-8 c -0.004,4 0,6 0,7 0,1 0,1 1,1 1,0 4.098,0.008 7,0 m 0,0" />
  <path
     style="fill:#aaaaaa;fill-opacity:1;fill-rule:nonzero;stroke:none"
     inkscape:connector-curvature="0"
     id="path79"
     d="m 19.965,28 13.773,0 0,4 -13.773,0 m 0,-4" />
  <path
     style="fill:#333333;fill-opacity:1;fill-rule:nonzero;stroke:none"
     inkscape:connector-curvature="0"
     id="path81"
     d="m 33,28 0,4 2.438,0 c 0,0 0.563,-0.328 0.563,-2 0,-1.609 -0.625,-1.996 -0.625,-1.996 l -2.371,0 M 33.001,28" />
  <path
     style="fill:#333333;fill-opacity:1;fill-rule:nonzero;stroke:none"
     d="M 20 28 L 18 28.998047 L 18 28.984375 L 16.445312 29.773438 L 16 29.996094 L 16.003906 29.998047 L 16 30 L 18 31.019531 L 18 30.996094 L 20 31.996094 L 20 32 L 23 32 L 23 28 L 20 28 z "
     id="path83" />
  <g
     id="g87">
    <path
       d="m 40.03 7.531 c 3.712 4.084 5.969 9.514 5.969 15.469 0 12.703 -10.297 23 -23 23 c -5.954 0 -11.384 -2.256 -15.469 -5.969 4.178 4.291 10.01 6.969 16.469 6.969 c 12.703 0 23 -10.298 23 -23 0 -6.462 -2.677 -12.291 -6.969 -16.469 z"
       opacity="0.1"
       id="path89" />
  </g>
</svg>
